public/avatar/shoe/91.svg

<svg xmlns:xlink="http://www.w3.org/1999/xlink" height="38.3" width="36.05" xmlns="http://www.w3.org/2000/svg"><use height="16.85" transform="translate(7.65 12.15)" width="24.4" xlink:href="#a"/><defs><g id="a" fill-rule="evenodd"><path d="M7.85 7.65q.2 1.35-1.05 2-7.8 4.8-16.15 4.5-5.75-.15-6.6-2.25v-.8q-.35-.85-.05-2.25.9-4.95 5-8.05 2.85-3.4 6.4-3.5 3.2-.15 3.5 1.6l2.25.1Q3.85-.6 5.9.65q3.35 1.95 1.95 7" fill="#260b0a" transform="translate(16.15 2.7)"/><path d="m-1.55-.3 2.2.05q2.5.3 4.4 1.3 2 1.1 2.2 3.85.05 2.2-.6 3.3-.5.65-4.45 2.15-4.2 1.55-7.1 2-5.85.9-8.2-.15-2.1-1-1.85-3.5.45-4.3 4.4-7Q-7.7-1.5-4.6-1.7q2.75-.2 3.05 1.4" fill="#8a328a" transform="translate(16.15 2.7)"/><path d="M5.9 8.75Q-2.35 13.25-9.2 13q-5.15-.1-5.75-1.7-.2-.5.2-1.05.45-.55.85-.55.3 0 .65 1 .75 1.15 2.7 1.65Q-5.9 13.4 2.55 9.8q3.65-1.55 4.3-2.75.6.85-.95 1.7m-19.2-.8.65-2.1q.9-2.25 2.25-3.05l1.55.2q-2.65 1-4.45 4.95" fill="#4b2d60" transform="translate(16.15 2.7)"/><path d="M.05 4.7q-2.25.55-5 3.15-2.2 2.05-4.6 1.8-2.35-.3-2-1.05l2.15-1.85 1.65-1.65Q-6.4 3.75-4.9 3.5q2.4-.35 5.1 0 .95 0 2.75-1.35 1.45-1.1 2.2-.5 1.4 1.2 1.2 2.45-.45-1.3-2.1-1.2-1 .1-2.25.8l-1.95 1" fill="#cb478f" transform="translate(16.15 2.7)"/><path d="M-.55 3.1q.6-.05.65 1.5.05 1.85-1.5 3.65Q-3.05 10.2-5 10.8l-1.85.2Q-4 9.3-2.5 7.4-1 5.55-.55 3.1" fill="#8a328a" transform="translate(16.15 2.7)"/><path d="M-6.55 10.55Q-1.1 7.1-.8 3.3q.95 5.25-5.75 7.25" fill="#fff" transform="translate(16.15 2.7)"/><path d="M2.35 7.25Q1.45 8.5-1.6 9.5q4.2-2.6 4.25-6 .55 2.55-.3 3.75" fill="#fff" transform="translate(16.15 2.7)"/><path d="M-5.5-1.45Q-2.75-1.8-1.75-.3q1.2 1.9-4.9 2.6-2.55.3-3.15-.45-.5-.6.35-1.4 1.3-1.55 3.95-1.9" fill="#cb478f" transform="translate(16.15 2.7)"/><path d="m.85 2.1-2-.15L-1.4.3.8.35q2.3.1 3.45.65-.75-.3-1.75.25L.85 2.1" fill="#4b2d60" transform="translate(16.15 2.7)"/><path d="M6.85 7.55q-3.15 3-9.9 4.3l-8.15.3 1.8.15 7.7-1.2q4.95-1.15 8.65-4.15l-.1.6" fill="#fff0e5" transform="translate(16.15 2.7)"/><path d="m-2.05 2.6-3.45.45-2.05.45 3.5-1.35q1.4-.3 2 .45" fill="#4b2d60" transform="translate(16.15 2.7)"/><path d="M-5.9-.75-7.45-.8l2.2-.7q2.9-.15 3.35 1.4.35 1.35-1.55 1.6.2-.45-.4-1.45-.4-.6-2.05-.8m10 2.4.85.25q.85.4 1.1 1.25.35 1.25.5 3.15-.6-2.35-1.8-2.8l-1.6-1.05q-.55-.8.95-.8" fill="#ef93b9" transform="translate(16.15 2.7)"/></g></defs></svg>

<?xml version="1.0" encoding="UTF-8" standalone="no"?>
<svg xmlns:xlink="http://www.w3.org/1999/xlink" height="38.3px" width="36.05px" xmlns="http://www.w3.org/2000/svg">
  <g transform="matrix(1.0, 0.0, 0.0, 1.0, 23.8, 14.85)">
    <use height="16.85" transform="matrix(1.0, 0.0, 0.0, 1.0, -16.15, -2.7)" width="24.4" xlink:href="#shape0"/>
  </g>
  <defs>
    <g id="shape0" transform="matrix(1.0, 0.0, 0.0, 1.0, 16.15, 2.7)">
      <path d="M7.85 7.65 Q8.05 9.0 6.8 9.65 -1.0 14.45 -9.35 14.15 -15.1 14.0 -15.95 11.9 L-15.95 11.1 Q-16.3 10.25 -16.0 8.85 -15.1 3.9 -11.0 0.8 -8.15 -2.6 -4.6 -2.7 -1.4 -2.85 -1.1 -1.1 L1.15 -1.0 Q3.85 -0.6 5.9 0.65 9.25 2.6 7.85 7.65" fill="#260b0a" fill-rule="evenodd" stroke="none"/>
      <path d="M-1.55 -0.3 L0.65 -0.25 Q3.15 0.05 5.05 1.05 7.05 2.15 7.25 4.9 7.3 7.1 6.65 8.2 6.15 8.85 2.2 10.35 -2.0 11.9 -4.9 12.35 -10.75 13.25 -13.1 12.2 -15.2 11.2 -14.95 8.7 -14.5 4.4 -10.55 1.7 -7.7 -1.5 -4.6 -1.7 -1.85 -1.9 -1.55 -0.3" fill="#8a328a" fill-rule="evenodd" stroke="none"/>
      <path d="M5.9 8.75 Q-2.35 13.25 -9.2 13.0 -14.35 12.9 -14.95 11.3 -15.15 10.8 -14.75 10.25 -14.3 9.7 -13.9 9.7 -13.6 9.7 -13.25 10.7 -12.5 11.85 -10.55 12.35 -5.9 13.4 2.55 9.8 6.2 8.25 6.85 7.05 7.45 7.9 5.9 8.75" fill="#4b2d60" fill-rule="evenodd" stroke="none"/>
      <path d="M-13.3 7.95 L-12.65 5.85 Q-11.75 3.6 -10.4 2.8 L-8.85 3.0 Q-11.5 4.0 -13.3 7.95" fill="#4b2d60" fill-rule="evenodd" stroke="none"/>
      <path d="M0.05 4.7 Q-2.2 5.25 -4.95 7.85 -7.15 9.9 -9.55 9.65 -11.9 9.35 -11.55 8.6 L-9.4 6.75 -7.75 5.1 Q-6.4 3.75 -4.9 3.5 -2.5 3.15 0.2 3.5 1.15 3.5 2.95 2.15 4.4 1.05 5.15 1.65 6.55 2.85 6.35 4.1 5.9 2.8 4.25 2.9 3.25 3.0 2.0 3.7 L0.05 4.7" fill="#cb478f" fill-rule="evenodd" stroke="none"/>
      <path d="M-0.55 3.1 Q0.05 3.05 0.1 4.6 0.15 6.45 -1.4 8.25 -3.05 10.2 -5.0 10.8 L-6.85 11.0 Q-4.0 9.3 -2.5 7.4 -1.0 5.55 -0.55 3.1" fill="#8a328a" fill-rule="evenodd" stroke="none"/>
      <path d="M-6.55 10.55 Q-1.1 7.1 -0.8 3.3 0.15 8.55 -6.55 10.55" fill="#ffffff" fill-rule="evenodd" stroke="none"/>
      <path d="M2.35 7.25 Q1.45 8.5 -1.6 9.5 2.6 6.9 2.65 3.5 3.2 6.05 2.35 7.25" fill="#ffffff" fill-rule="evenodd" stroke="none"/>
      <path d="M-5.5 -1.45 Q-2.75 -1.8 -1.75 -0.3 -0.55 1.6 -6.65 2.3 -9.2 2.6 -9.8 1.85 -10.3 1.25 -9.45 0.45 -8.15 -1.1 -5.5 -1.45" fill="#cb478f" fill-rule="evenodd" stroke="none"/>
      <path d="M0.85 2.1 L-1.15 1.95 -1.4 0.3 0.8 0.35 Q3.1 0.45 4.25 1.0 3.5 0.7 2.5 1.25 L0.85 2.1" fill="#4b2d60" fill-rule="evenodd" stroke="none"/>
      <path d="M6.85 7.55 Q3.7 10.55 -3.05 11.85 L-11.2 12.15 -9.4 12.3 -1.7 11.1 Q3.25 9.95 6.95 6.95 L6.85 7.55" fill="#fff0e5" fill-rule="evenodd" stroke="none"/>
      <path d="M-2.05 2.6 L-5.5 3.05 -7.55 3.5 -4.05 2.15 Q-2.65 1.85 -2.05 2.6" fill="#4b2d60" fill-rule="evenodd" stroke="none"/>
      <path d="M-5.9 -0.75 L-7.45 -0.8 -5.25 -1.5 Q-2.35 -1.65 -1.9 -0.1 -1.55 1.25 -3.45 1.5 -3.25 1.05 -3.85 0.05 -4.25 -0.55 -5.9 -0.75" fill="#ef93b9" fill-rule="evenodd" stroke="none"/>
      <path d="M4.1 1.65 L4.95 1.9 Q5.8 2.3 6.05 3.15 6.4 4.4 6.55 6.3 5.95 3.95 4.75 3.5 L3.15 2.45 Q2.6 1.65 4.1 1.65" fill="#ef93b9" fill-rule="evenodd" stroke="none"/>
    </g>
  </defs>
</svg>
